symbols/web/10mp/materialsymbolsrounded/10mp_wght700_20px.svg

<svg xmlns="http://www.w3.org/2000/svg" height="20" width="20"><path d="M7.792 9.854q.27 0 .448-.187.177-.188.177-.459V5.729q0-.354-.25-.604t-.605-.25H6.5q-.25 0-.438.177-.187.177-.187.448t.187.458q.188.188.459.188h.625v3.083q0 .25.187.438.188.187.459.187Zm3.041 0h2.125q.354 0 .604-.239.25-.24.25-.594V5.729q0-.354-.25-.604t-.604-.25h-2.125q-.354 0-.604.25t-.25.604v3.292q0 .354.25.594.25.239.604.239Zm.417-1.271V6.146h1.292v2.437ZM4.5 18.208q-1.146 0-1.927-.781-.781-.781-.781-1.927v-11q0-1.146.781-1.927.781-.781 1.927-.781h11q1.146 0 1.927.781.781.781.781 1.927v11q0 1.146-.781 1.927-.781.781-1.927.781Zm0-2.708h11v-11h-11v11Zm1.188-.396q.25 0 .437-.187.187-.188.187-.459v-2.812h.792v1.75q0 .271.177.448t.469.177q.25 0 .438-.188.187-.187.187-.458v-1.729h.792v2.833q0 .271.177.448t.468.177q.25 0 .438-.187.188-.188.188-.459v-3.229q0-.354-.24-.604t-.615-.25H5.896q-.354 0-.604.25t-.25.604v3.25q0 .271.177.448t.469.177Zm6.124 0q.25 0 .438-.187.188-.188.188-.459V14h1.666q.375 0 .615-.24.239-.239.239-.593v-1.938q0-.354-.239-.604-.24-.25-.615-.25h-2.083q-.354 0-.604.25t-.25.604v3.25q0 .271.177.448t.468.177Zm.626-3.458h1.25v1.083h-1.25ZM4.5 4.5v11Z"/></svg>

<svg xmlns="http://www.w3.org/2000/svg" height="20" width="20"><path d="M7.792 9.854Q8.062 9.854 8.24 9.667Q8.417 9.479 8.417 9.208V5.729Q8.417 5.375 8.167 5.125Q7.917 4.875 7.562 4.875H6.5Q6.25 4.875 6.062 5.052Q5.875 5.229 5.875 5.5Q5.875 5.771 6.062 5.958Q6.25 6.146 6.521 6.146H7.146V9.229Q7.146 9.479 7.333 9.667Q7.521 9.854 7.792 9.854ZM10.833 9.854H12.958Q13.312 9.854 13.562 9.615Q13.812 9.375 13.812 9.021V5.729Q13.812 5.375 13.562 5.125Q13.312 4.875 12.958 4.875H10.833Q10.479 4.875 10.229 5.125Q9.979 5.375 9.979 5.729V9.021Q9.979 9.375 10.229 9.615Q10.479 9.854 10.833 9.854ZM11.25 8.583V6.146H12.542V8.583ZM4.5 18.208Q3.354 18.208 2.573 17.427Q1.792 16.646 1.792 15.5V4.5Q1.792 3.354 2.573 2.573Q3.354 1.792 4.5 1.792H15.5Q16.646 1.792 17.427 2.573Q18.208 3.354 18.208 4.5V15.5Q18.208 16.646 17.427 17.427Q16.646 18.208 15.5 18.208ZM4.5 15.5H15.5Q15.5 15.5 15.5 15.5Q15.5 15.5 15.5 15.5V4.5Q15.5 4.5 15.5 4.5Q15.5 4.5 15.5 4.5H4.5Q4.5 4.5 4.5 4.5Q4.5 4.5 4.5 4.5V15.5Q4.5 15.5 4.5 15.5Q4.5 15.5 4.5 15.5ZM5.688 15.104Q5.938 15.104 6.125 14.917Q6.312 14.729 6.312 14.458V11.646H7.104V13.396Q7.104 13.667 7.281 13.844Q7.458 14.021 7.75 14.021Q8 14.021 8.188 13.833Q8.375 13.646 8.375 13.375V11.646H9.167V14.479Q9.167 14.75 9.344 14.927Q9.521 15.104 9.812 15.104Q10.062 15.104 10.25 14.917Q10.438 14.729 10.438 14.458V11.229Q10.438 10.875 10.198 10.625Q9.958 10.375 9.583 10.375H5.896Q5.542 10.375 5.292 10.625Q5.042 10.875 5.042 11.229V14.479Q5.042 14.75 5.219 14.927Q5.396 15.104 5.688 15.104ZM11.812 15.104Q12.062 15.104 12.25 14.917Q12.438 14.729 12.438 14.458V14H14.104Q14.479 14 14.719 13.76Q14.958 13.521 14.958 13.167V11.229Q14.958 10.875 14.719 10.625Q14.479 10.375 14.104 10.375H12.021Q11.667 10.375 11.417 10.625Q11.167 10.875 11.167 11.229V14.479Q11.167 14.75 11.344 14.927Q11.521 15.104 11.812 15.104ZM12.438 11.646H13.688V12.729H12.438ZM4.5 4.5Q4.5 4.5 4.5 4.5Q4.5 4.5 4.5 4.5Q4.5 4.5 4.5 4.5Q4.5 4.5 4.5 4.5V15.5Q4.5 15.5 4.5 15.5Q4.5 15.5 4.5 15.5Q4.5 15.5 4.5 15.5Q4.5 15.5 4.5 15.5Z"/></svg>
